X:1
T:Kimi Ga Yo
T:Kimigayo (君が代)
T:Japans nasjonalsang
T:Hiromori Hayashi
C:Hiromori Hayashi
%%score [ 1 2 3 4 ]
L:1/8
Q:1/4=60
M:4/4
K:C
V:1 treble nm="Soprano"
V:2 treble nm="Alto"
V:3 treble-8 nm="Tenor"
V:4 bass nm="Bass"
V:1
 D2 C2 (D2 E2) | (G2 E2) D4 | E2 G2 (A2 GA) | d2 B2 A2 G2 | E2 G2 A4 | d2 c2 d4 | E2 G2 A2 G2 | %7
w: Ki- mi- ga- *|yo _ wa|Chi- yo ni _ _|ya- chi- yo ni|Sa- za- re-|i- shi no|I- wa- o to|
 E3 G D4 | A2 c2 d4 | c2 d2 (A2 G2) | (A2 GE) D4 |] %11
w: na- ri- te|Ko- ke no|mu- * su _|ma- * * de|
V:2
 D2 C2 (D2 E2) | (G2 E2) D4 | C2 E2 (F2 EF) | A2 G2 ^F2 E2 | C2 E2 F4 | A2 A2 A4 | C2 E2 F2 E2 | %7
w: Ki- mi- ga- *|yo _ wa|Chi- yo ni _ _|ya- chi- yo ni|Sa- za- re-|i- shi no|I- wa- o to|
 E3 G D4 | F2 A2 A4 | A2 A2 (A2 G2) | (A2 GE) D4 |] %11
w: na- ri- te|Ko- ke no|mu- * su _|ma- * * de|
V:3
 D2 C2 (D2 E2) | (G2 E2) D4 | G2 c2 c4 | ^f2 d2 d2 B2 | G2 c2 c4 | f2 e2 f4 | c2 c2 c2 c2 | %7
w: Ki- mi- ga- *|yo _ wa|Chi- yo ni|ya- chi- yo ni|Sa- za- re-|i- shi no|I- wa- o to|
 c3 c B4 | c2 f2 f4 | e2 f2 (A2 G2) | (A2 GE) D4 |] %11
w: na- ri- te|Ko- ke no|mu- * su _|ma- * * de|
V:4
 D,2 C,2 (D,2 E,2) | (G,2 E,2) D,4 | C,2 E,2 (F,2 E,F,) | ^F,2 G,2 (D,^D,) E,2 | %4
w: Ki- mi- ga- *|yo _ wa|Chi- yo ni _ _|ya- chi- yo * ni|
 C,2 E,2 (C,2 F,2) | D,2 A,2 D,4 | A,2 G,2 F,2 E,2 | C,3 E, G,4 | F,2 F,2 D,4 | %9
w: Sa- za- re- *|i- shi no|I- wa- o to|na- ri- te|Ko- ke no|
 A,,2 D,2 (A,2 G,2) | (A,2 G,E,) D,4 |] %11
w: mu- * su _|ma- * * de|

